X:3562
L:1/8
M:4/4
K:C
 BEA |[M:2/2][K:A]SOSOO .!fermata!PMTuCOMEAAc eA (3(cBA) | ceae (3(fga) ed |1 cdef edcA | 
 (3(Bcd) cA BF({G} (3FEF) :|2 cefg agaf | edcB Aceg ||{b} aece{b} aece | agbg aece | 
{b} aece{b} aecA | GABc defg |{b} aece{b} aece | agbg aece | (A/B/c/d/ e/f/g) agaf | edcB ABAF |]

